X:1
T:Title
%%score ( 1 2 ) ( 3 4 )
L:1/8
Q:1/4=100
M:4/4
K:Eb
V:1 treble nm="Grand Piano, Soprano"
V:2 treble 
V:3 bass nm="Choir Pad, Victory Side, Lelia Morris"
V:4 bass 
V:1
 [GB] [GB]2 [GB] [Ac] [GB]2 E | [EF] [EG]2 [EG]- [EG]/[EA]/ [EG]3- | %2
w: By~Lelia~Naylor~Morris * * * * *||
 [EG][GB][GB][GB]- [GB]/[GB]/ [Gc]2 [Ge]- | [Ge] [Ad]3- [Ad]3- [Ad]/ z/ | %4
w: ||
 [Ad] [Ge]2 [Ge] [Ge] [Ge]2 [GB] | [GB] [Ac]2 [Ae]- [Ae]/[Ac]/ [GB]3- | %6
w: ||
 [GB]EEE- E/[EF]/ [EG]2 [DF]- | [DF] [B,E]3- [B,E]2- [B,E]/ z/ z | z f3 z4 | z z/ e/- e4- e/ z/ z | %10
w: ||||
 z8 | z8 | z8 | z8 | z8 | z8 |] %16
w: ||||||
V:2
 x8 | x8 | x8 | x8 | x8 | x8 | x8 | x8 | .B2 AA [Ge] [Ad]2 [Ac]- | [Ac][GB]/G/- GG- G/G/ G2 [EB]- | %10
 [EB][Ec][Ec][=Ec]- [Ec]/[Ec]/ [Fc]2 [Fe]- | [Fe] [Fd]3- [Fd]2- [Fd]/ z/ [Ad]- | %12
 [Ad] [Ge]3 [Ge] [Bd]2 [Ac]- | [Ac] [GB]2 [EG]- [EG] [Ee]2 [Ec]- | %14
 [Ec][EB][EB]E- E/[EF]/ [EG]2 [DF]- | [DF] [B,E]3- [B,E]3- [B,E]/ z/ |] %16
V:3
 [E,E] [E,E]2 [E,E] [E,E]2 [E,E][E,G,] | [E,A,] [E,B,]2 [E,B,]- [E,B,]/[E,C]/ [E,B,]3- | %2
 [E,B,] [E,B,]2 [B,,B,]- [B,,B,] [E,B,]2 [B,,B,]- | [B,,B,] [F,B,]2 [F,B,]- [F,B,] [B,,B,]3 | %4
 [B,,B,] [E,B,]2 [E,C] [E,C] [E,B,]2 [E,C] | [E,C] [A,E]2 [A,C]- [A,C]/[A,E]/ [E,E]3- | %6
 [E,E][G,B,][G,B,][G,B,]- [G,B,]/[A,C]/ B,2 [B,,A,]- | [B,,A,] [E,G,]3- [E,G,]2- [E,G,]/ z/ z | %8
 z2[K:treble] [B,D][B,D] [B,E] [B,F]2 [B,D]- | [B,D][K:bass][E,E]/B,/- B,B,- B,/B,/ B,2 [E,G,]- | %10
 [E,G,]A,A,[G,B,]- [G,B,]/[G,B,]/ [F,=A,]2 [F,A,]- | [F,A,] B,2 _A,- A, G,2 [F,B,]- | %12
 [F,B,] [E,B,]3 [E,B,]A,B,C | D [E,E]2 [E,B,]- [E,B,] [A,C]2 A,- | %14
 A,[G,B,][G,B,][G,B,]- [G,B,]/[A,C]/ B,2 [B,,A,]- | [B,,A,] [E,G,]3- [E,G,]3- [E,G,]/ z/ |] %16
V:4
 x8 | x8 | x8 | x8 | x8 | x8 | x8 | x8 | x2[K:treble] x6 | z[K:bass] z/ E,/- E,4- E,/ z/ z | x8 | %11
 x8 | z4 z2 z A,- | A, z z2 z4 | x8 | x8 |] %16

